;FLAVOR:Marlin
;TIME:4856.04
;Filament used:7.24025m
;Layer Height:0.2
;MINX:80.231
;MINY:90.231
;MINZ:0.2
;MAXX:139.769
;MAXY:129.769
;MAXZ:80
;OuterWall Time:1425.62
;InnerWall Time:935.224
;Skin Time:1006.04
;Support Time:0
;SkirtBrim Time:0
;Infill Time:876.869
;Support Infills Time:0
;Combing Time:433.401
;Retraction Time:178.885
;PrimeTower Time:0


;;;;;;;;;;;;;;;;;;;;;;;;;;;;;;;;;;;;;;;;;;;;;;;;;;;;;;;;;;;;;;;;;;;;;;;;;;;;
;Creality Print GCode Generated by CXEngine
;CRSLICE_GIT_HASH:6b8d75d
;Creality Print Version : V4.3.7.6627
;CXEngine Release Time:2023-09-22 09:18:32
;Gcode Generated Time:2024-08-25 12:56:44
;----------Machine Config--------------
;Machine Name:Ender-3 V3 SE
;Machine Height:250
;Machine Width:220
;Machine Depth:220
;Material Type:PLA
;Material Name:CR-PLA_1.75
;Number of Extruders:1
;ExtruderParams[0] Nozzle Diameter:1000
;----------Profile Config---------------
;Wall Thickness:0.8
;Top/Bottom Thickness:0.8
;Out Wall Line Width:0.42
;Inner Wall Line Width:0.45
;Inital Height:200
;Wall Line Count:2
;Infill Line Distance:8
;Infill Pattern:grid
;Infill Sparse Density:10
;Infill Wipe Distance:0
;Print Temperature:205
;Bed Temperature:60
;Support Enable:false
;Support Density:15
;Support Angle:60
;Adhesion Type:autobrim
;machine is belt:false
;machine belt offset:10
;machine belt offset Y:0
;Raft Base Line Spacing:1.6
;Wait Heatup Sync:true
;Enable Ironing:false
;Material Type:PLA
;Max volumetric speed:20
;Material Diameter:1.75
;Material Density:1.24
;Filament Cost:0.3
;Filament Weight:0
;Preview Img Type:png
;Screen Size:Sermoon D3
;----------Shell Config----------------
;Outer Wall Wipe Distance:200
;Outer Inset First:false
;Infill Before Walls:false
;Infill Overlap:0.04
;Fill Gaps Between Walls:everywhere
;Minimum Infill Area:15
;Top Surface Skin Layer:0
;Top Layers:4
;Z Seam Alignment:sharpest_corner
;Seam Corner Preference:z_seam_corner_inner
;Z Seam X:110
;Z Seam Y:220
;Horizontal Expansion:0
;Top/Bottom Pattern:zigzag
;Ironing Pattern:zigzag
;Vase Model:false
;----------Support Config----------------
;Support Type:everywhere
;Support Pattern:zigzag
;Support Infill Layer Thickness:0.15
;Minimum Support Area:1
;Enable Support Roof:true
;Support Roof Thickness:0.8
;Support Roof Pattern:lines
;Connect Support Lines:0
;Connect Support ZigZags:1
;Minimum Support X/Y Distance:0.2
;Support Line Distance:2.67
; ---------PrintSpeed & Travel----------
;Enable Print Cool:true
;Avoid Printed Parts Traveling:true
;Enable Retraction:true
;Retraction Distance:0.8
;Retraction Speed:40
;Retraction Prime Speed:40
;Maximum Retraction Count:100
;Minimum Extrusion Distance Window:0.8
;Z Hop When Retracted:false
;Z Hop Height:0.2
;Retract Before Outer Wall:true

;Outer Wall Speed:60
;Inner Wall Speed:90
;Infill Speed:180
;Top/Bottom Speed:50
;Travel Speed:150
;Initial Layer Speed:30
;Skirt/Brim Speed:25
;Prime Tower Speed:60
;Outer Wall Acceleration:1000
;Inner Wall Acceleration:2000
;Infill Acceleration:2500
;Top/Bottom Acceleration:2500
;Travel Acceleration:2500
;Initial Layer Print Acceleration:500
;Initial Layer Travel Acceleration:500
;Skirt/Brim Acceleration:500
;Combing Mode:noskin
; --------SpecialModel&Mesh Fixes--------
;Union Overlapping Volum:true
;Remove All Holes:false
;Maximum Travel Resolution:0.25
;Maximum Deviation:0.05
;Maximum Model Angle:0.872767
;IS Mold Print:false
;Make Overhang Printable:false
;Enable Coasting:false
;Coasting Volumes:0.064
;Coasting Speed:0.9
;Raft AirGap:0.25
;Layer0 ZOverLap:0.13
;Adaptive Layers:0
;---------------------End of Head--------------------------
M140 S60
M105
M190 S60
M104 S205
M82 ;absolute extrusion mode
M220 S100 ;Reset Feedrate
M221 S100 ;Reset Flowrate

G28 ;Home

G92 E0 ;Reset Extruder
G1 Z2.0 F3000 ;Move Z Axis up
G1 X10.1 Y20 Z0.28 F5000.0 ;Move to start position
M109 S205.000000
G1 X10.1 Y145.0 Z0.28 F1500.0 E15 ;Draw the first line
G1 X10.4 Y145.0 Z0.28 F5000.0 ;Move to side a little
G1 X10.4 Y20 Z0.28 F1500.0 E30 ;Draw the second line
G92 E0  ;Reset Extruder
G1 E-1.0000 F1800 ;Retract a bit
G1 Z2.0 F3000 ;Move Z Axis up
G1 E0.0000 F1800 

G92 E0
G92 E0
G1 F2400 E-0.8
;LAYER_COUNT:400

;LAYER:0
M106 S0
M204 S500
;MESH:0_0
G0 F4800 X80.731 Y90.731 Z0.2
;TYPE:WALL-INNER
G1 F2400 E0
G1 F1800 X124.992 Y90.731 E1.82154
G1 X125.697 Y90.748 E1.85057
G1 X126.397 Y90.799 E1.87945
G1 X127.084 Y90.884 E1.90794
G1 X127.812 Y91.01 E1.93835
G1 X128.466 Y91.157 E1.96593
G1 X129.157 Y91.35 E1.99546
G1 X129.774 Y91.552 E2.02218
G1 X130.458 Y91.818 E2.05238
G1 X131.102 Y92.102 E2.08135
G1 X131.727 Y92.416 E2.11013
G1 X132.337 Y92.762 E2.13899
G1 X132.928 Y93.136 E2.16778
G1 X133.498 Y93.538 E2.19648
G1 X134.05 Y93.969 E2.2253
G1 X134.581 Y94.426 E2.25414
G1 X135.091 Y94.911 E2.2831
G1 X135.573 Y95.418 E2.31189
G1 X136.015 Y95.93 E2.33973
G1 X136.46 Y96.5 E2.36949
G1 X136.864 Y97.073 E2.39834
G1 X137.238 Y97.663 E2.42709
G1 X137.584 Y98.274 E2.45599
G1 X137.898 Y98.898 E2.48474
G1 X138.185 Y99.547 E2.51394
G1 X138.429 Y100.177 E2.54174
G1 X138.652 Y100.843 E2.57065
G1 X138.842 Y101.53 E2.59998
G1 X138.99 Y102.194 E2.62798
G1 X139.114 Y102.905 E2.65768
G1 X139.199 Y103.594 E2.68625
G1 X139.252 Y104.301 E2.71543
G1 X139.27 Y105.011 E2.74466
G1 X139.27 Y114.996 E3.15559
G1 X139.252 Y115.704 E3.18474
G1 X139.2 Y116.404 E3.21362
G1 X139.114 Y117.092 E3.24216
G1 X138.989 Y117.819 E3.27252
G1 X138.841 Y118.474 E3.30015
G1 X138.661 Y119.124 E3.32791
G1 X138.448 Y119.774 E3.35606
G1 X138.18 Y120.464 E3.38652
G1 X137.897 Y121.102 E3.41525
G1 X137.585 Y121.726 E3.44396
G1 X137.236 Y122.341 E3.47306
G1 X136.861 Y122.932 E3.50187
G1 X136.459 Y123.503 E3.53061
G1 X136.026 Y124.055 E3.55948
G1 X135.565 Y124.591 E3.58857
G1 X135.086 Y125.095 E3.61719
G1 X134.595 Y125.561 E3.64505
G1 X134.047 Y126.032 E3.67479
G1 X133.494 Y126.464 E3.70367
G1 X132.922 Y126.868 E3.73249
G1 X132.331 Y127.241 E3.76125
G1 X131.721 Y127.587 E3.79011
G1 X131.095 Y127.901 E3.81893
G1 X130.452 Y128.185 E3.84786
G1 X129.817 Y128.43 E3.87587
G1 X129.149 Y128.654 E3.90487
G1 X128.46 Y128.843 E3.93427
G1 X127.806 Y128.99 E3.96186
G1 X127.085 Y129.115 E3.99197
G1 X126.39 Y129.201 E4.02079
G1 X125.69 Y129.252 E4.04968
G1 X124.989 Y129.27 E4.07853
G1 X80.731 Y129.27 E5.89995
G1 X80.731 Y90.731 E7.48601
;;retract;;
G1 F2400 E6.92601
G1 X82.731 Y90.731 E6.69801
G1 F2400 E6.68601
G0 F4800 X80.252 Y90.252
;TYPE:WALL-OUTER
G1 F2400 E7.48601
G1 F1800 X124.998 Y90.252 E9.17037
G1 X125.721 Y90.27 E9.1976
G1 X126.443 Y90.323 E9.22485
G1 X127.154 Y90.411 E9.25182
G1 X127.906 Y90.541 E9.28055
G1 X128.583 Y90.693 E9.30666
G1 X129.296 Y90.892 E9.33453
G1 X129.935 Y91.102 E9.35985
G1 X130.642 Y91.376 E9.38839
G1 X131.306 Y91.669 E9.41571
G1 X131.952 Y91.994 E9.44293
G1 X132.583 Y92.351 E9.47022
G1 X133.194 Y92.738 E9.49745
G1 X133.783 Y93.154 E9.52459
G1 X134.353 Y93.599 E9.55181
G1 X134.902 Y94.071 E9.57907
G1 X135.43 Y94.573 E9.60649
G1 X135.928 Y95.096 E9.63367
G1 X136.385 Y95.627 E9.66005
G1 X136.844 Y96.215 E9.68813
G1 X137.262 Y96.807 E9.71541
G1 X137.649 Y97.417 E9.7426
G1 X138.006 Y98.048 E9.76989
G1 X138.331 Y98.694 E9.79711
G1 X138.628 Y99.364 E9.8247
G1 X138.88 Y100.014 E9.85094
G1 X139.11 Y100.704 E9.87832
G1 X139.307 Y101.414 E9.90605
G1 X139.459 Y102.101 E9.93254
G1 X139.587 Y102.835 E9.96059
G1 X139.675 Y103.547 E9.98759
G1 X139.73 Y104.277 E10.01515
G1 X139.748 Y105.005 E10.04256
G1 X139.748 Y115.002 E10.41888
G1 X139.73 Y115.728 E10.44621
G1 X139.676 Y116.451 E10.47351
G1 X139.587 Y117.162 E10.50048
G1 X139.458 Y117.913 E10.52916
G1 X139.305 Y118.591 E10.55533
G1 X139.119 Y119.262 E10.58154
G1 X138.898 Y119.935 E10.6082
G1 X138.622 Y120.647 E10.63695
G1 X138.33 Y121.306 E10.66408
G1 X138.007 Y121.951 E10.69123
G1 X137.647 Y122.587 E10.71874
G1 X137.259 Y123.198 E10.74599
G1 X136.843 Y123.789 E10.77319
G1 X136.395 Y124.359 E10.80048
G1 X135.92 Y124.912 E10.82792
G1 X135.425 Y125.434 E10.855
G1 X134.916 Y125.917 E10.88142
G1 X134.351 Y126.402 E10.90945
G1 X133.779 Y126.848 E10.93675
G1 X133.188 Y127.266 E10.964
G1 X132.577 Y127.652 E10.9912
G1 X131.946 Y128.009 E11.01849
G1 X131.299 Y128.334 E11.04575
G1 X130.635 Y128.627 E11.07307
G1 X129.98 Y128.881 E11.09951
G1 X129.289 Y129.112 E11.12694
G1 X128.576 Y129.308 E11.15478
G1 X127.899 Y129.459 E11.18089
G1 X127.155 Y129.588 E11.20931
G1 X126.436 Y129.677 E11.23658
G1 X125.714 Y129.73 E11.26383
G1 X124.995 Y129.748 E11.29091
G1 X80.252 Y129.748 E12.97516
G1 X80.252 Y90.252 E14.46189
G0 F4800 X80.452 Y90.252
;;retract;;
G1 F2400 E13.90189
G1 X82.452 Y90.252 E13.67389
G1 F2400 E13.66189
G0 F4800 X80.901 Y90.901
G0 X81.189 Y90.878
G1 F2400 E14.46189
G0 F4800 X81.189 Y91.189
;TYPE:SKIN
G1 F1800 X81.189 Y128.811 E15.90699
G1 X124.982 Y128.811 E17.58912
G1 X125.666 Y128.794 E17.6154
G1 X126.343 Y128.744 E17.64148
G1 X127.017 Y128.66 E17.66757
G1 X127.689 Y128.544 E17.69376
G1 X128.35 Y128.399 E17.71976
G1 X129.013 Y128.216 E17.74617
G1 X129.661 Y127.998 E17.77244
G1 X130.275 Y127.76 E17.79773
G1 X130.901 Y127.485 E17.82399
G1 X131.503 Y127.183 E17.84986
G1 X132.097 Y126.847 E17.87608
G1 X132.666 Y126.487 E17.90194
G1 X133.221 Y126.095 E17.92804
G1 X133.756 Y125.676 E17.95414
G1 X134.288 Y125.221 E17.98103
G1 X134.762 Y124.771 E18.00613
G1 X135.226 Y124.284 E18.03197
G1 X135.672 Y123.762 E18.05834
G1 X136.092 Y123.229 E18.08441
G1 X136.48 Y122.677 E18.11033
G1 X136.844 Y122.103 E18.13643
G1 X137.18 Y121.509 E18.16265
G1 X137.481 Y120.909 E18.18843
G1 X137.757 Y120.285 E18.21464
G1 X138.017 Y119.617 E18.24217
G1 X138.222 Y118.99 E18.26751
G1 X138.398 Y118.359 E18.29267
G1 X138.546 Y117.703 E18.3185
G1 X138.659 Y117.025 E18.34491
G1 X138.743 Y116.356 E18.3708
G1 X138.794 Y115.679 E18.39688
G1 X138.811 Y114.988 E18.42343
G1 X138.811 Y105.017 E18.80643
G1 X138.794 Y104.324 E18.83306
G1 X138.742 Y103.639 E18.85944
G1 X138.659 Y102.972 E18.88526
G1 X138.544 Y102.311 E18.91103
G1 X138.398 Y101.639 E18.93745
G1 X138.21 Y100.963 E18.9644
G1 X138.007 Y100.365 E18.98865
G1 X137.761 Y99.722 E19.0151
G1 X137.482 Y99.093 E19.04153
G1 X137.18 Y98.491 E19.0674
G1 X136.844 Y97.898 E19.09358
G1 X136.483 Y97.329 E19.11946
G1 X136.091 Y96.773 E19.14559
G1 X135.659 Y96.221 E19.17252
G1 X135.233 Y95.725 E19.19763
G1 X134.767 Y95.236 E19.22358
G1 X134.271 Y94.764 E19.24988
G1 X133.756 Y94.322 E19.27594
G1 X133.224 Y93.906 E19.30189
G1 X132.672 Y93.517 E19.32782
G1 X132.102 Y93.156 E19.35374
G1 X131.509 Y92.82 E19.37992
G1 X130.904 Y92.516 E19.40593
G1 X130.281 Y92.241 E19.43209
G1 X129.588 Y91.972 E19.46064
G1 X129.039 Y91.794 E19.48281
G1 X128.352 Y91.601 E19.51022
G1 X127.695 Y91.453 E19.53609
G1 X127.016 Y91.339 E19.56253
G1 X126.349 Y91.256 E19.58835
G1 X125.673 Y91.206 E19.61439
G1 X124.987 Y91.189 E19.64074
G1 X81.189 Y91.189 E21.32307
;;retract;;
G1 F2400 E20.76307
G1 X82.706 Y92.492 E20.53507
G1 F2400 E20.52307
G0 F4800 X81.189 Y90.878
G0 X80.878 Y128.462
G1 F2400 E21.32307
G0 F4800 X81.419 Y128.462
G1 F1800 X81.537 Y128.579 E21.32945
G1 X82.19 Y128.579
G1 X81.419 Y127.808 E21.37133
G1 X81.419 Y127.155
G1 X82.843 Y128.579 E21.44869
G1 X83.497 Y128.579
G1 X81.419 Y126.502 E21.56154
G1 X81.419 Y125.848
G1 X84.15 Y128.579 E21.70989
G1 X84.804 Y128.579
G1 X81.419 Y125.195 E21.89374
G1 X81.419 Y124.542
G1 X85.457 Y128.579 E22.11306
G1 X86.11 Y128.579
G1 X81.419 Y123.888 E22.36788
G1 X81.419 Y123.235
G1 X86.764 Y128.579 E22.6582
G1 X87.417 Y128.579
G1 X81.419 Y122.581 E22.98402
G1 X81.419 Y121.928
G1 X88.07 Y128.579 E23.34531
G1 X88.724 Y128.579
G1 X81.419 Y121.275 E23.7421
G1 X81.419 Y120.621
G1 X89.377 Y128.579 E24.17439
G1 X90.03 Y128.579
G1 X81.419 Y119.968 E24.64215
G1 X81.419 Y119.315
G1 X90.684 Y128.579 E25.14541
G1 X91.337 Y128.579
G1 X81.419 Y118.661 E25.68417
G1 X81.419 Y118.008
G1 X91.991 Y128.579 E26.25843
G1 X92.644 Y128.579
G1 X81.419 Y117.354 E26.86819
G1 X81.419 Y116.701
G1 X93.297 Y128.579 E27.51342
G1 X93.951 Y128.579
G1 X81.419 Y116.048 E28.19414
G1 X81.419 Y115.394
G1 X94.604 Y128.579 E28.91037
G1 X95.257 Y128.579
G1 X81.419 Y114.741 E29.66207
G1 X81.419 Y114.088
G1 X95.911 Y128.579 E30.44926
G1 X96.564 Y128.579
G1 X81.419 Y113.434 E31.27196
G1 X81.419 Y112.781
G1 X97.217 Y128.579 E32.13013
G1 X97.871 Y128.579
G1 X81.419 Y112.128 E33.0238
G1 X81.419 Y111.474
G1 X98.524 Y128.579 E33.95296
G1 X99.178 Y128.579
G1 X81.419 Y110.821 E34.91763
G1 X81.419 Y110.167
G1 X99.831 Y128.579 E35.91779
G1 X100.484 Y128.579
G1 X81.419 Y109.514 E36.95343
G1 X81.419 Y108.861
G1 X101.138 Y128.579 E38.02456
G1 X101.791 Y128.579
G1 X81.419 Y108.207 E39.13119
G1 X81.419 Y107.554
G1 X102.444 Y128.579 E40.2733
G1 X103.098 Y128.579
G1 X81.419 Y106.901 E41.4509
G1 X81.419 Y106.247
G1 X103.751 Y128.579 E42.66401
G1 X104.405 Y128.579
G1 X81.419 Y105.594 E43.91261
G1 X81.419 Y104.941
G1 X105.058 Y128.579 E45.19668
G1 X105.711 Y128.579
G1 X81.419 Y104.287 E46.51626
G1 X81.419 Y103.634
G1 X106.365 Y128.579 E47.87133
G1 X107.018 Y128.579
G1 X81.419 Y102.98 E49.2619
G1 X81.419 Y102.327
G1 X107.671 Y128.579 E50.68794
G1 X108.325 Y128.579
G1 X81.419 Y101.674 E52.14949
G1 X81.419 Y101.02
G1 X108.978 Y128.579 E53.64653
G1 X109.631 Y128.579
G1 X81.419 Y100.367 E55.17904
G1 X81.419 Y99.714
G1 X110.285 Y128.579 E56.74705
G1 X110.938 Y128.579
G1 X81.419 Y99.06 E58.35056
G1 X81.419 Y98.407
G1 X111.592 Y128.579 E59.98957
G1 X112.245 Y128.579
G1 X81.419 Y97.753 E61.66408
G1 X81.419 Y97.1
G1 X112.898 Y128.579 E63.37406
G1 X113.552 Y128.579
G1 X81.419 Y96.447 E65.11954
G1 X81.419 Y95.793
G1 X114.205 Y128.579 E66.90052
G1 X114.858 Y128.579
G1 X81.419 Y95.14 E68.71697
G1 X81.419 Y94.487
G1 X115.512 Y128.579 E70.56892
G1 X116.165 Y128.579
G1 X81.419 Y93.833 E72.45637
G1 X81.419 Y93.18
G1 X116.818 Y128.579 E74.37929
G1 X117.472 Y128.579
G1 X81.419 Y92.527 E76.3377
G1 X81.419 Y91.873
G1 X118.125 Y128.579 E78.33162
G1 X118.779 Y128.579
G1 X81.619 Y91.419 E80.3502
G1 X82.272 Y91.419
G1 X119.432 Y128.579 E82.36878
G1 X120.085 Y128.579
G1 X82.925 Y91.419 E84.38736
G1 X83.579 Y91.419
G1 X120.739 Y128.579 E86.40594
G1 X121.392 Y128.579
G1 X84.232 Y91.419 E88.42452
G1 X84.886 Y91.419
G1 X122.045 Y128.579 E90.44307
G1 X122.699 Y128.579
G1 X85.539 Y91.419 E92.46165
G1 X86.192 Y91.419
G1 X123.352 Y128.579 E94.48023
G1 X124.006 Y128.579
G1 X86.846 Y91.419 E96.49881
G1 X87.499 Y91.419
G1 X124.659 Y128.579 E98.51739
G1 X125.303 Y128.57
G1 X88.152 Y91.419 E100.53548
G1 X88.806 Y91.419
G1 X125.927 Y128.541 E102.55197
G1 X126.526 Y128.486
G1 X89.459 Y91.419 E104.5655
G1 X90.112 Y91.419
G1 X127.103 Y128.409 E106.57487
G1 X127.66 Y128.313
G1 X90.766 Y91.419 E108.579
G1 X91.419 Y91.419
G1 X128.194 Y128.194 E110.57667
G1 X128.711 Y128.058
G1 X92.073 Y91.419 E112.56692
G1 X92.726 Y91.419
G1 X129.211 Y127.905 E114.54886
G1 X129.696 Y127.736
G1 X93.379 Y91.419 E116.52165
G1 X94.033 Y91.419
G1 X130.167 Y127.553 E118.48449
G1 X130.621 Y127.354
G1 X94.686 Y91.419 E120.43653
G1 X95.339 Y91.419
G1 X131.064 Y127.144 E122.37716
G1 X131.494 Y126.921
G1 X95.993 Y91.419 E124.30565
G1 X96.646 Y91.419
G1 X131.912 Y126.685 E126.22134
G1 X132.314 Y126.434
G1 X97.3 Y91.419 E128.12337
G1 X97.953 Y91.419
G1 X132.706 Y126.173 E130.01123
G1 X133.089 Y125.902
G1 X98.606 Y91.419 E131.88439
G1 X99.26 Y91.419
G1 X133.455 Y125.615 E133.74194
G1 X133.814 Y125.32
G1 X99.913 Y91.419 E135.58348
G1 X100.566 Y91.419
G1 X134.165 Y125.018 E137.40862
G1 X134.499 Y124.698
G1 X101.22 Y91.419 E139.21638
G1 X101.873 Y91.419
G1 X134.824 Y124.37 E141.00632
G1 X135.138 Y124.031
G1 X102.526 Y91.419 E142.77785
G1 X103.18 Y91.419
G1 X135.439 Y123.679 E144.53023
G1 X135.729 Y123.315
G1 X103.833 Y91.419 E146.26286
G1 X104.487 Y91.419
G1 X136.009 Y122.942 E147.9752
G1 X136.279 Y122.559
G1 X105.14 Y91.419 E149.66674
G1 X105.793 Y91.419
G1 X136.534 Y122.16 E151.33663
G1 X136.778 Y121.751
G1 X106.447 Y91.419 E152.98428
G1 X107.1 Y91.419
G1 X137.011 Y121.33 E154.60909
G1 X137.228 Y120.894
G1 X107.753 Y91.419 E156.21021
G1 X108.407 Y91.419
G1 X137.432 Y120.445 E157.78691
G1 X137.625 Y119.984
G1 X109.06 Y91.419 E159.3386
G1 X109.713 Y91.419
G1 X137.808 Y119.513 E160.86473
G1 X137.968 Y119.02
G1 X110.367 Y91.419 E162.36405
G1 X111.02 Y91.419
