;FLAVOR:Marlin
;TIME:3323.46
;Filament used:3.92608m
;Layer Height:0.2
;MINX:87.056
;MINY:68.056
;MINZ:0.2
;MAXX:132.944
;MAXY:151.944
;MAXZ:29
;OuterWall Time:686.177
;InnerWall Time:328.723
;Skin Time:1563.14
;Support Time:0
;SkirtBrim Time:0
;Infill Time:14.627
;Support Infills Time:0
;Combing Time:162.161
;Retraction Time:568.632
;PrimeTower Time:0

;
;;;;;;;;;;;;;;;;;;;;;;;;;;;;;;;;;;;;;;;;;;;;;;;;;;;;;;;;;;;;;;;;;;;;;;;;;;;;
;Creality Print GCode Generated by CXEngine
;CRSLICE_GIT_HASH:6b8d75d
;Creality Print Version : V4.3.7.6627
;CXEngine Release Time:2023-09-22 09:18:32
;Gcode Generated Time:2024-08-27 00:10:46
;----------Machine Config--------------
;Machine Name:Ender-3 V3 SE
;Machine Height:250
;Machine Width:220
;Machine Depth:220
;Material Type:PLA
;Material Name:CR-PLA_1.75
;Number of Extruders:1
;ExtruderParams[0] Nozzle Diameter:1000
;----------Profile Config---------------
;Wall Thickness:0.8
;Top/Bottom Thickness:0.8
;Out Wall Line Width:0.42
;Inner Wall Line Width:0.45
;Inital Height:200
;Wall Line Count:2
;Infill Line Distance:8
;Infill Pattern:grid
;Infill Sparse Density:10
;Infill Wipe Distance:0
;Print Temperature:205
;Bed Temperature:60
;Support Enable:false
;Support Density:15
;Support Angle:60
;Adhesion Type:autobrim
;machine is belt:false
;machine belt offset:10
;machine belt offset Y:0
;Raft Base Line Spacing:1.6
;Wait Heatup Sync:true
;Enable Ironing:false
;Material Type:PLA
;Max volumetric speed:20
;Material Diameter:1.75
;Material Density:1.24
;Filament Cost:0.3
;Filament Weight:0
;Preview Img Type:png
;Screen Size:Sermoon D3
;----------Shell Config----------------
;Outer Wall Wipe Distance:200
;Outer Inset First:false
;Infill Before Walls:false
;Infill Overlap:0.04
;Fill Gaps Between Walls:everywhere
;Minimum Infill Area:15
;Top Surface Skin Layer:0
;Top Layers:4
;Z Seam Alignment:sharpest_corner
;Seam Corner Preference:z_seam_corner_inner
;Z Seam X:110
;Z Seam Y:220
;Horizontal Expansion:0
;Top/Bottom Pattern:zigzag
;Ironing Pattern:zigzag
;Vase Model:false
;----------Support Config----------------
;Support Type:everywhere
;Support Pattern:zigzag
;Support Infill Layer Thickness:0.15
;Minimum Support Area:1
;Enable Support Roof:true
;Support Roof Thickness:0.8
;Support Roof Pattern:lines
;Connect Support Lines:0
;Connect Support ZigZags:1
;Minimum Support X/Y Distance:0.2
;Support Line Distance:2.67
; ---------PrintSpeed & Travel----------
;Enable Print Cool:true
;Avoid Printed Parts Traveling:true
;Enable Retraction:true
;Retraction Distance:0.8
;Retraction Speed:40
;Retraction Prime Speed:40
;Maximum Retraction Count:100
;Minimum Extrusion Distance Window:0.8
;Z Hop When Retracted:false
;Z Hop Height:0.2
;Retract Before Outer Wall:true

;Outer Wall Speed:60
;Inner Wall Speed:90
;Infill Speed:180
;Top/Bottom Speed:50
;Travel Speed:150
;Initial Layer Speed:30
;Skirt/Brim Speed:25
;Prime Tower Speed:60
;Outer Wall Acceleration:1000
;Inner Wall Acceleration:2000
;Infill Acceleration:2500
;Top/Bottom Acceleration:2500
;Travel Acceleration:2500
;Initial Layer Print Acceleration:500
;Initial Layer Travel Acceleration:500
;Skirt/Brim Acceleration:500
;Combing Mode:noskin
; --------SpecialModel&Mesh Fixes--------
;Union Overlapping Volum:true
;Remove All Holes:false
;Maximum Travel Resolution:0.25
;Maximum Deviation:0.05
;Maximum Model Angle:0.872767
;IS Mold Print:false
;Make Overhang Printable:false
;Enable Coasting:false
;Coasting Volumes:0.064
;Coasting Speed:0.9
;Raft AirGap:0.25
;Layer0 ZOverLap:0.13
;Adaptive Layers:0
;---------------------End of Head--------------------------
M140 S60
M105
M190 S60
M104 S205
M82 ;absolute extrusion mode
M220 S100 ;Reset Feedrate
M221 S100 ;Reset Flowrate

G28 ;Home

G92 E0 ;Reset Extruder
G1 Z2.0 F3000 ;Move Z Axis up
G1 X10.1 Y20 Z0.28 F5000.0 ;Move to start position
M109 S205.000000
G1 X10.1 Y145.0 Z0.28 F1500.0 E15 ;Draw the first line
G1 X10.4 Y145.0 Z0.28 F5000.0 ;Move to side a little
G1 X10.4 Y20 Z0.28 F1500.0 E30 ;Draw the second line
G92 E0  ;Reset Extruder
G1 E-1.0000 F1800 ;Retract a bit
G1 Z2.0 F3000 ;Move Z Axis up
G1 E0.0000 F1800 

G92 E0
G92 E0
G1 F2400 E-0.8
;LAYER_COUNT:145

;LAYER:0
M106 S0
M204 S500
;MESH:0_0
G0 F4800 X88.431 Y69.431 Z0.2
;TYPE:WALL-INNER
G1 F2400 E0
G1 F1800 X131.57 Y69.431 E1.77537
G1 X131.57 Y150.57 E5.11461
G1 X88.431 Y150.57 E6.88998
G1 X88.431 Y91 E9.34156
G1 X88.431 Y69.431 E10.22922
;;retract;;
G1 F2400 E9.66922
G1 X89.369 Y71.196 E9.44122
G1 F2400 E9.42922
G0 F4800 X87.952 Y68.952
;TYPE:WALL-OUTER
G1 F2400 E10.22922
G1 F1800 X132.048 Y68.952 E11.88912
G1 X132.048 Y151.048 E14.97944
G1 X87.952 Y151.048 E16.63933
G1 X87.952 Y91 E18.8997
G1 X87.952 Y68.952 E19.72965
G0 F4800 X88.152 Y68.952
;;retract;;
G1 F2400 E19.16965
G1 X89.095 Y70.715 E18.94165
G1 F2400 E18.92965
G0 F4800 X88.601 Y69.601
G0 X88.678 Y122.852
G0 X92.66 Y124.159
G0 X93.811 Y123.288
G0 X94.522 Y122.922
G0 X95.198 Y122.675
G0 X96.425 Y122.431
G0 X97.543 Y122.36
G0 X100.541 Y122.363
G0 X100.994 Y122.833
G0 X103.683 Y122.639
G0 X104.093 Y122.868
G0 X105.954 Y125.601
G0 X106.174 Y125.842
G0 X106.307 Y123.094
G0 X106.789 Y122.641
G0 X109.175 Y122.641
G0 X109.426 Y122.852
G1 F2400 E19.72965
G0 F4800 X109.431 Y123.239
;TYPE:WALL-INNER
G1 F1800 X109.589 Y122.921 E19.74426
G1 X109.938 Y122.778 E19.75979
G1 X111.934 Y122.779 E19.84193
G1 X112.277 Y122.873 E19.85657
G1 X112.513 Y123.146 E19.87142
G1 X113.16 Y125.005 E19.95243
G1 X116.02 Y125.005 E20.07013
G1 X116.657 Y123.147 E20.15096
G1 X116.832 Y122.945 E20.16196
G1 X117.2 Y122.778 E20.17859
G1 X119.178 Y122.783 E20.26
G1 X119.465 Y122.884 E20.27252
G1 X119.65 Y123.091 E20.28394
G1 X120.088 Y122.905 E20.30353
G1 X120.787 Y122.714 E20.33335
G1 X121.767 Y122.552 E20.37423
G1 X122.772 Y122.5 E20.41564
G1 X123.791 Y122.567 E20.45767
G1 X124.346 Y122.681 E20.48099
G1 X124.953 Y122.873 E20.50719
G1 X125.569 Y123.165 E20.53524
G1 X126.122 Y123.539 E20.56272
G1 X126.627 Y124.006 E20.59103
G1 X127.048 Y124.54 E20.61901
G1 X127.389 Y125.128 E20.64699
G1 X127.666 Y125.799 E20.67686
G1 X127.923 Y126.889 E20.72295
G1 X128.006 Y128.1 E20.7729
G1 X127.931 Y129.193 E20.81799
G1 X127.809 Y129.795 E20.84327
G1 X127.603 Y130.444 E20.87129
G1 X127.186 Y131.295 E20.91029
G1 X126.876 Y131.748 E20.93289
G1 X126.474 Y132.215 E20.95824
G1 X125.963 Y132.67 E20.9864
G1 X125.405 Y133.037 E21.01389
G1 X124.777 Y133.334 E21.04248
G1 X123.907 Y133.591 E21.07981
G1 X123.291 Y133.682 E21.10544
G1 X122.733 Y133.708 E21.12843
G1 X121.639 Y133.632 E21.17356
G1 X120.634 Y133.441 E21.21566
G1 X120.042 Y133.243 E21.24135
G1 X119.613 Y133.056 E21.26061
G1 X119.347 Y132.804 E21.27569
G1 X119.247 Y132.527 E21.28781
G1 X119.263 Y132.252 E21.29915
G1 X119.803 Y130.719 E21.36604
G1 X119.997 Y130.453 E21.37959
G1 X120.344 Y130.261 E21.39591
G1 X120.718 Y130.33 E21.41156
G1 X121.142 Y130.542 E21.43107
G1 X121.572 Y130.696 E21.44986
G1 X122.108 Y130.814 E21.47245
G1 X122.669 Y130.852 E21.49559
G1 X123.085 Y130.818 E21.51277
G1 X123.512 Y130.693 E21.53108
G1 X123.75 Y130.573 E21.54205
G1 X123.963 Y130.421 E21.55282
G1 X124.154 Y130.234 E21.56382
G1 X124.32 Y130.011 E21.57526
G1 X124.47 Y129.738 E21.58808
G1 X124.599 Y129.41 E21.60258
G1 X124.73 Y128.829 E21.6271
G1 X124.776 Y128.109 E21.65679
G1 X124.74 Y127.473 E21.683
G1 X124.633 Y126.894 E21.70724
G1 X124.48 Y126.456 E21.72633
G1 X124.248 Y126.048 E21.74565
G1 X124.068 Y125.843 E21.75687
G1 X123.863 Y125.674 E21.76781
G1 X123.63 Y125.54 E21.77887
G1 X123.377 Y125.445 E21.78999
G1 X123.037 Y125.377 E21.80426
G1 X122.66 Y125.354 E21.8198
G1 X121.942 Y125.394 E21.8494
G1 X121.421 Y125.502 E21.8713
G1 X120.439 Y125.889 E21.91474
G1 X120.092 Y125.841 E21.92915
G1 X119.653 Y125.398 E21.95482
G1 X119.411 Y124.682 E21.98592
G1 X118.752 Y126.49 E22.06512
G1 X117.828 Y128.868 E22.17011
G1 X116.93 Y131.01 E22.2657
G1 X116.015 Y133.015 E22.3564
G1 X115.847 Y133.245 E22.36812
G1 X115.456 Y133.43 E22.38592
G1 X113.665 Y133.43 E22.45963
G1 X113.345 Y133.302 E22.47382
G1 X113.156 Y133.124 E22.4845
G1 X112.178 Y130.987 E22.58122
G1 X111.285 Y128.851 E22.6765
G1 X110.356 Y126.474 E22.78153
G1 X109.555 Y124.287 E22.87738
G1 X109.555 Y132.72 E23.22444
G1 X109.49 Y133.015 E23.23687
G1 X109.251 Y133.302 E23.25224
G1 X108.93 Y133.43 E23.26646
G1 X106.269 Y133.43 E23.37598
G1 X104.929 Y133.34 E23.43125
G1 X103.8 Y133.07 E23.47902
G1 X103.258 Y132.843 E23.50321
G1 X102.774 Y132.556 E23.52636
G1 X102.246 Y132.103 E23.55499
G1 X101.832 Y131.53 E23.58409
G1 F1782 X101.566 Y130.892 E23.61282
G1 F1747.1 X101.441 Y130.346 E23.63657
G1 F1771.4 X101.411 Y129.725 E23.66257
G1 F1785.6 X101.454 Y129.021 E23.69183
G1 F1767.9 X101.671 Y128.314 E23.72282
G1 F1789.2 X102.011 Y127.709 E23.75156
G1 F1800 X102.482 Y127.2 E23.7801
G1 X102.867 Y126.927 E23.79952
G1 X102.155 Y125.929 E23.84997
G1 X101.484 Y124.875 E23.90139
G1 F1837.1 X100.902 Y123.756 E23.95225
G1 X100.921 Y125.017 E24.00311
G1 F1800 X100.921 Y128.288 E24.13772
G1 F1757.4 X100.933 Y129.042 E24.16951
G1 F1764.4 X100.919 Y129.725 E24.19819
G1 F1774.9 X100.93 Y130.421 E24.22725
G1 F1767.9 X100.921 Y130.884 E24.24665
G1 F1800 X100.92 Y132.91 E24.33003
G1 X100.67 Y133.262 E24.3478
G1 X100.276 Y133.427 E24.36538
G1 X97.544 Y133.43 E24.47781
G1 X96.331 Y133.356 E24.52783
G1 X95.221 Y133.131 E24.57444
G1 X94.304 Y132.782 E24.61482
G1 X93.738 Y132.455 E24.64172
G1 X93.286 Y132.12 E24.66487
G1 X92.79 Y131.627 E24.69365
G1 X92.362 Y131.036 E24.72368
G1 X92.029 Y130.379 E24.754
G1 X91.788 Y129.645 E24.78579
G1 X91.643 Y128.806 E24.82083
G1 X91.601 Y128.018 E24.85331
G1 X91.602 Y127.928 E24.85701
G1 X91.679 Y126.867 E24.90079
G1 X91.811 Y126.248 E24.92684
G1 X92.029 Y125.602 E24.9549
G1 X92.362 Y124.948 E24.9851
G1 X92.784 Y124.359 E25.01492
G1 X93.282 Y123.851 E25.0442
G1 X93.871 Y123.413 E25.0744
G1 X94.51 Y123.074 E25.10417
G1 X95.221 Y122.813 E25.13534
G1 X96.346 Y122.575 E25.18267
G1 X97.526 Y122.501 E25.23133
G1 X100.345 Y122.501 E25.34734
G1 X100.714 Y122.668 E25.36401
G1 X100.911 Y123.184 E25.38674
G1 X101.247 Y122.842 E25.40647
G1 X101.449 Y122.779 E25.41518
G1 X103.618 Y122.779 E25.50444
G1 X103.886 Y122.908 E25.51668
G1 X104.086 Y123.126 E25.52886
G1 X104.63 Y124.046 E25.57285
G1 X105.215 Y124.933 E25.61657
G1 X105.792 Y125.732 E25.65713
G1 X106.095 Y126.12 E25.67739
G1 X106.41 Y126.12 E25.69036
G1 X106.41 Y123.487 E25.79872
G1 X106.508 Y123.126 E25.81411
G1 X106.777 Y122.865 E25.82954
G1 X107.045 Y122.781 E25.8411
G1 X108.934 Y122.783 E25.91884
G1 X109.273 Y122.921 E25.9339
G1 X109.431 Y123.239 E25.94851
;;retract;;
G1 F2400 E25.38851
G1 X109.938 Y122.778 E25.31042
G1 X111.253 Y122.778 E25.16051
G1 F2400 E25.14851
G0 F4800 X109.724 Y123.487
;TYPE:WALL-OUTER
G1 F2400 E25.94851
G1 F1587 X110.002 Y123.256 E25.96395
G1 F1800 X111.907 Y123.257 E26.03566
G1 X112.099 Y123.411 E26.04492
G1 X112.819 Y125.484 E26.12753
G1 X116.362 Y125.484 E26.26089
G1 X117.084 Y123.375 E26.34481
G1 X117.278 Y123.256 E26.35337
G1 X119.131 Y123.259 E26.42313
G1 F1823.7 X119.322 Y123.414 E26.43226
G1 F1873 X119.196 Y123.841 E26.44837
G1 F1848 X118.305 Y126.317 E26.54485
G1 F1800 X117.387 Y128.682 E26.64035
G1 X116.494 Y130.811 E26.72725
G1 X115.562 Y132.853 E26.81175
G1 X115.409 Y132.948 E26.81853
G1 X113.711 Y132.948 E26.88245
G1 X113.558 Y132.852 E26.88924
G1 X112.62 Y130.802 E26.97411
G1 X111.731 Y128.676 E27.06085
G1 X110.805 Y126.31 E27.15649
G1 F1714.6 X110.281 Y124.947 E27.2142
G1 F1563.2 X109.756 Y123.583 E27.27755
G1 F1456.4 X109.724 Y123.487 E27.28226
G0 F4800 X109.878 Y123.36
;;retract;;
G1 F2400 E26.72226
G1 X111.876 Y123.259 E26.49426
G1 F2400 E26.48226
G0 F4800 X109.426 Y122.852
G0 X109.175 Y122.641
G0 X106.789 Y122.641
G0 X106.33 Y123.017
G0 X106.201 Y123.492
G0 X106.174 Y125.842
G0 X105.372 Y124.794
G0 X104.103 Y122.801
G0 X103.683 Y122.639
G0 X101.093 Y122.643
G1 F2400 E27.28226
G0 F4800 X101.331 Y123.395
G1 F1800 X101.468 Y123.256 E27.2896
G1 X103.523 Y123.261 E27.36696
G1 X103.654 Y123.335 E27.37262
G1 X104.224 Y124.3 E27.41481
G1 X104.812 Y125.193 E27.45506
G1 X105.414 Y126.027 E27.49378
G1 X105.862 Y126.599 E27.52113
G1 X106.888 Y126.598 E27.55975
G1 X106.888 Y123.397 E27.68024
G1 X107.047 Y123.256 E27.68824
G1 X108.888 Y123.26 E27.75754
G1 F1686.8 X109.127 Y123.473 E27.7704
G1 X109.076 Y126.616 E27.89667
G1 F1800 X109.076 Y132.791 E28.12911
G1 X108.885 Y132.948 E28.13842
G1 X106.254 Y132.951 E28.23746
G1 X104.982 Y132.863 E28.28545
G1 X103.942 Y132.613 E28.32572
G1 X103.47 Y132.414 E28.345
G1 X103.05 Y132.166 E28.36336
G1 X102.614 Y131.789 E28.38506
G1 X102.253 Y131.296 E28.40806
G1 X102.018 Y130.722 E28.43141
G1 X101.922 Y130.262 E28.44909
G1 X101.888 Y129.725 E28.46935
G1 X101.94 Y129.105 E28.49277
G1 X102.105 Y128.529 E28.51532
G1 X102.402 Y127.99 E28.53849
G1 X102.781 Y127.58 E28.55951
G1 X103.309 Y127.205 E28.58388
G1 X103.598 Y127.075 E28.59581
G1 X103.22 Y126.602 E28.61861
G1 X102.558 Y125.671 E28.66161
G1 X101.906 Y124.648 E28.70727
G1 X101.34 Y123.597 E28.75221
G1 X101.331 Y123.395 E28.75982
G0 F4800 X101.468 Y123.256
G0 X101.473 Y123.256
;;retract;;
G1 F2400 E28.19982
G1 X103.473 Y123.26 E27.97182
G1 F2400 E27.95982
G0 F4800 X101.473 Y122.577
G0 X100.853 Y122.586
G1 F2400 E28.75982
G0 F4800 X100.383 Y123.055
G1 F1800 X100.442 Y123.209 E28.76603
G1 X100.442 Y132.731 E29.12446
G1 X100.383 Y132.875 E29.13032
G1 X100.251 Y132.948 E29.136
G1 X97.53 Y132.951 E29.23842
G1 X96.383 Y132.878 E29.28169
G1 X95.37 Y132.673 E29.32059
G1 X94.496 Y132.34 E29.3558
G1 X94.023 Y132.071 E29.37628
G1 X93.613 Y131.767 E29.39549
G1 X93.167 Y131.327 E29.41908
G1 X92.764 Y130.77 E29.44496
G1 X92.465 Y130.176 E29.46999
G1 X92.258 Y129.544 E29.49502
G1 X92.124 Y128.808 E29.52318
G1 X92.079 Y127.992 E29.55395
G1 X92.158 Y126.917 E29.59452
G1 X92.279 Y126.348 E29.61642
G1 X92.477 Y125.777 E29.63917
G1 X92.783 Y125.18 E29.66442
G1 X93.141 Y124.681 E29.68754
G1 X93.586 Y124.224 E29.71155
G1 X94.138 Y123.814 E29.73743
G1 X94.722 Y123.506 E29.76229
G1 X95.339 Y123.279 E29.78704
G1 X96.428 Y123.049 E29.82893
G1 X97.557 Y122.978 E29.87152
G1 X100.241 Y122.98 E29.97255
G1 X100.383 Y123.055 E29.97859
G0 F4800 X100.442 Y123.209
G0 X100.442 Y123.245
G0 X100.877 Y123.487
;TYPE:WALL-INNER
G1 F719.1 X100.882 Y123.603 E29.98258
;;retract;;
G1 F2400 E29.42258
G1 F2400 E29.18258
G0 F4800 X101.045 Y124.32
G0 X101.057 Y133.05
G0 X100.541 Y133.566
G0 X97.517 Y133.569
G0 X96.345 Y133.5
G0 X95.129 Y133.245
G0 X94.168 Y132.867
G0 X93.197 Y132.229
G0 X92.638 Y131.655
G0 X92.276 Y131.171
G0 X91.879 Y130.37
G0 X91.652 Y129.68
G0 X91.503 Y128.786
G0 X91.461 Y127.944
G0 X91.535 Y126.876
G0 X91.702 Y126.123
G0 X91.901 Y125.545
G0 X92.323 Y124.763
G0 X92.667 Y124.277
G0 X93.198 Y123.738
G0 X93.811 Y123.288
G0 X94.522 Y122.922
G0 X95.198 Y122.675
G0 X96.425 Y122.431
G0 X97.543 Y122.36
G0 X100.541 Y122.363
G0 X100.994 Y122.833
G0 X103.683 Y122.639
G0 X104.093 Y122.868
G0 X105.954 Y125.601
G0 X106.174 Y125.842
G0 X106.273 Y123.157
G0 X106.789 Y122.641
G0 X109.175 Y122.641
G0 X109.431 Y122.912
G0 X109.612 Y122.642
G0 X112.133 Y122.639
G0 X112.596 Y122.964
G0 X113.313 Y124.79
G0 X115.866 Y124.79
G0 X116.573 Y122.965
G0 X117.038 Y122.639
G0 X119.502 Y122.642
G0 X119.712 Y122.872
G1 F2400 E29.98258
G0 F4800 X119.763 Y123.564
;TYPE:WALL-OUTER
G1 F1800 X120.24 Y123.359 E30.00212
G1 X120.923 Y123.173 E30.02877
G1 X121.779 Y123.031 E30.06143
G1 X122.797 Y122.978 E30.0998
G1 X123.744 Y123.046 E30.13554
G1 X124.274 Y123.156 E30.15592
G1 X124.788 Y123.324 E30.17628
G1 X125.314 Y123.574 E30.1982
G1 X125.842 Y123.931 E30.22219
G1 X126.286 Y124.345 E30.24504
G1 X126.639 Y124.793 E30.26651
G1 X126.965 Y125.355 E30.29097
G1 X127.202 Y125.928 E30.31431
G1 X127.45 Y126.981 E30.35503
G1 X127.527 Y128.116 E30.39786
G1 X127.453 Y129.141 E30.43654
G1 X127.34 Y129.7 E30.45801
G1 X127.15 Y130.283 E30.48109
G1 X126.782 Y131.034 E30.51257
G1 X126.481 Y131.478 E30.53276
G1 X126.143 Y131.867 E30.55216
G1 X125.659 Y132.296 E30.57651
G1 X125.153 Y132.627 E30.59927
G1 X124.584 Y132.893 E30.62291
G1 X123.82 Y133.119 E30.6529
G1 X123.268 Y133.204 E30.67393
G1 X122.717 Y133.229 E30.69469
G1 X121.673 Y133.155 E30.73409
