;FLAVOR:Marlin
;TIME:3479.67
;Filament used:4.17813m
;Layer Height:0.2
;MINX:86.4
;MINY:17.397
;MINZ:0.2
;MAXX:132.288
;MAXY:101.285
;MAXZ:29
;OuterWall Time:647.899
;InnerWall Time:287.223
;Skin Time:1538.83
;Support Time:176.98
;SkirtBrim Time:0
;Infill Time:14.626
;Support Infills Time:0
;Combing Time:172.07
;Retraction Time:610.166
;PrimeTower Time:31.8783
;;;;;;;;;;;;;;;;;;;;;;;;;;;;;;;;;;;;;;;;;;;;;;;;;;;;;;;;;;;;;;;;;;;;;;;
;Creality Print GCode Generated by CXEngine
;CRSLICE_GIT_HASH:6b8d75d
;Creality Print Version : V4.3.7.6627
;CXEngine Release Time:2023-09-22 09:18:32
;Gcode Generated Time:2024-08-27 20:20:54
;----------Machine Config--------------
;Machine Name:Ender-3 V3 SE
;Machine Height:250
;Machine Width:220
;Machine Depth:220
;Material Type:PLA
;Material Name:CR-PLA_1.75
;Number of Extruders:1
;ExtruderParams[0] Nozzle Diameter:1000
;----------Profile Config---------------
;Wall Thickness:0.8
;Top/Bottom Thickness:0.8
;Out Wall Line Width:0.42
;Inner Wall Line Width:0.45
;Inital Height:200
;Wall Line Count:2
;Infill Line Distance:8
;Infill Pattern:grid
;Infill Sparse Density:10
;Infill Wipe Distance:0
;Print Temperature:205
;Bed Temperature:60
;Support Enable:false
;Support Density:15
;Support Angle:60
;Adhesion Type:autobrim
;machine is belt:false
;machine belt offset:10
;machine belt offset Y:0
;Raft Base Line Spacing:1.6
;Wait Heatup Sync:true
;Enable Ironing:false
;Material Type:PLA
;Max volumetric speed:20
;Material Diameter:1.75
;Material Density:1.24
;Filament Cost:0.3
;Filament Weight:0
;Preview Img Type:png
;Screen Size:Sermoon D3
;----------Shell Config----------------
;Outer Wall Wipe Distance:200
;Outer Inset First:false
;Infill Before Walls:false
;Infill Overlap:0.04
;Fill Gaps Between Walls:everywhere
;Minimum Infill Area:15
;Top Surface Skin Layer:0
;Top Layers:4
;Z Seam Alignment:sharpest_corner
;Seam Corner Preference:z_seam_corner_inner
;Z Seam X:110
;Z Seam Y:220
;Horizontal Expansion:0
;Top/Bottom Pattern:zigzag
;Ironing Pattern:zigzag
;Vase Model:false
;----------Support Config----------------
;Support Type:everywhere
;Support Pattern:zigzag
;Support Infill Layer Thickness:0.15
;Minimum Support Area:1
;Enable Support Roof:true
;Support Roof Thickness:0.8
;Support Roof Pattern:lines
;Connect Support Lines:0
;Connect Support ZigZags:1
;Minimum Support X/Y Distance:0.2
;Support Line Distance:2.67
; ---------PrintSpeed & Travel----------
;Enable Print Cool:true
;Avoid Printed Parts Traveling:true
;Enable Retraction:true
;Retraction Distance:0.8
;Retraction Speed:40
;Retraction Prime Speed:40
;Maximum Retraction Count:100
;Minimum Extrusion Distance Window:0.8
;Z Hop When Retracted:false
;Z Hop Height:0.2
;Retract Before Outer Wall:true

;Outer Wall Speed:60
;Inner Wall Speed:90
;Infill Speed:180
;Top/Bottom Speed:50
;Travel Speed:150
;Initial Layer Speed:30
;Skirt/Brim Speed:25
;Prime Tower Speed:60
;Outer Wall Acceleration:1000
;Inner Wall Acceleration:2000
;Infill Acceleration:2500
;Top/Bottom Acceleration:2500
;Travel Acceleration:2500
;Initial Layer Print Acceleration:500
;Initial Layer Travel Acceleration:500
;Skirt/Brim Acceleration:500
;Combing Mode:noskin
; --------SpecialModel&Mesh Fixes--------
;Union Overlapping Volum:true
;Remove All Holes:false
;Maximum Travel Resolution:0.25
;Maximum Deviation:0.05
;Maximum Model Angle:0.872767
;IS Mold Print:false
;Make Overhang Printable:false
;Enable Coasting:false
;Coasting Volumes:0.064
;Coasting Speed:0.9
;Raft AirGap:0.25
;Layer0 ZOverLap:0.13
;Adaptive Layers:0
;---------------------End of Head--------------------------
M140 S60
M105
M190 S60
M104 S205
M82 ;absolute extrusion mode
M220 S100 ;Reset Feedrate
M221 S100 ;Reset Flowrate

G28 ;Home

G92 E0 ;Reset Extruder
G1 Z2.0 F3000 ;Move Z Axis up
G1 X10.1 Y20 Z0.28 F5000.0 ;Move to start position
M109 S205.000000
G1 X10.1 Y145.0 Z0.28 F1500.0 E15 ;Draw the first line
G1 X10.4 Y145.0 Z0.28 F5000.0 ;Move to side a little
G1 X10.4 Y20 Z0.28 F1500.0 E30 ;Draw the second line
G92 E0  ;Reset Extruder
G1 E-1.0000 F1800 ;Retract a bit
G1 Z2.0 F3000 ;Move Z Axis up
G1 E0.0000 F1800 

G92 E0
G92 E0
G1 F2400 E-0.8
;LAYER_COUNT:145

;LAYER:0
M106 S0
M204 S500
;MESH:0_0
G0 F4800 X87.775 Y18.772 Z0.2
;TYPE:WALL-INNER
G1 F2400 E0
G1 F1800 X130.914 Y18.772 E1.77537
G1 X130.914 Y99.911 E5.11461
G1 X87.775 Y99.911 E6.88998
G1 X87.775 Y18.772 E10.22922
;;retract;;
G1 F2400 E9.66922
G1 X89.775 Y18.772 E9.44122
G1 F2400 E9.42922
G0 F4800 X87.296 Y18.293
;TYPE:WALL-OUTER
G1 F2400 E10.22922
G1 F1800 X131.392 Y18.293 E11.88912
G1 X131.392 Y100.389 E14.97944
G1 X87.296 Y100.389 E16.63933
G1 X87.296 Y18.293 E19.72965
G0 F4800 X87.496 Y18.293
;;retract;;
G1 F2400 E19.16965
G1 X89.495 Y18.293 E18.94165
G1 F2400 E18.92965
G0 F4800 X87.945 Y18.942
G0 X88.022 Y72.193
G0 X93.149 Y72.533
G0 X94.543 Y72.015
G0 X95.768 Y71.772
G0 X96.886 Y71.7
G0 X99.885 Y71.703
G0 X100.338 Y72.173
G0 X103.027 Y71.98
G0 X103.61 Y72.363
G0 X104.727 Y74.152
G0 X105.518 Y75.183
G0 X105.545 Y72.833
G0 X105.674 Y72.358
G0 X106.133 Y71.982
G0 X108.519 Y71.982
G0 X108.77 Y72.193
G1 F2400 E19.72965
G0 F4800 X108.775 Y72.58
;TYPE:WALL-INNER
G1 F1800 X108.933 Y72.262 E19.74426
G1 X109.282 Y72.119 E19.75979
G1 X111.278 Y72.12 E19.84193
G1 X111.621 Y72.214 E19.85657
G1 X111.857 Y72.487 E19.87142
G1 X112.504 Y74.346 E19.95243
G1 X115.363 Y74.346 E20.07009
G1 X116.001 Y72.488 E20.15093
G1 X116.176 Y72.286 E20.16193
G1 X116.544 Y72.119 E20.17857
G1 X118.499 Y72.121 E20.25902
G1 X118.808 Y72.224 E20.27243
G1 X118.993 Y72.432 E20.28388
G1 X119.431 Y72.246 E20.30347
G1 X120.138 Y72.052 E20.33364
G1 X121.111 Y71.892 E20.37422
G1 X122.117 Y71.84 E20.41568
G1 X123.132 Y71.908 E20.45754
G1 X123.765 Y72.041 E20.48416
G1 X124.296 Y72.213 E20.50713
G1 X124.916 Y72.508 E20.53539
G1 X125.466 Y72.88 E20.56272
G1 X125.97 Y73.346 E20.59097
G1 X126.389 Y73.876 E20.61877
G1 X126.731 Y74.465 E20.6468
G1 X127.013 Y75.151 E20.67732
G1 X127.267 Y76.23 E20.72294
G1 X127.35 Y77.441 E20.7729
G1 X127.275 Y78.533 E20.81795
G1 X127.153 Y79.135 E20.84323
G1 X126.947 Y79.784 E20.87125
G1 X126.53 Y80.635 E20.91025
G1 X126.22 Y81.088 E20.93284
G1 X125.819 Y81.556 E20.9582
G1 X125.306 Y82.011 E20.98642
G1 X124.749 Y82.378 E21.01387
G1 X124.115 Y82.678 E21.04274
G1 X123.256 Y82.931 E21.07959
G1 X122.634 Y83.023 E21.10547
G1 X122.076 Y83.049 E21.12846
G1 X120.982 Y82.973 E21.17359
G1 X119.978 Y82.781 E21.21566
G1 X119.383 Y82.582 E21.24148
G1 X118.929 Y82.388 E21.2618
G1 X118.691 Y82.145 E21.2758
G1 X118.591 Y81.868 E21.28792
G1 X118.607 Y81.593 E21.29925
G1 X119.147 Y80.059 E21.36618
G1 X119.341 Y79.794 E21.3797
G1 X119.687 Y79.603 E21.39596
G1 X120.061 Y79.67 E21.4116
G1 X120.486 Y79.883 E21.43116
G1 X120.916 Y80.037 E21.44996
G1 X121.452 Y80.155 E21.47255
G1 X122.013 Y80.193 E21.49569
G1 X122.429 Y80.158 E21.51287
G1 X122.857 Y80.033 E21.53122
G1 X123.094 Y79.914 E21.54213
G1 X123.306 Y79.762 E21.55287
G1 X123.498 Y79.574 E21.56393
G1 X123.664 Y79.352 E21.57534
G1 X123.814 Y79.079 E21.58816
G1 X123.943 Y78.751 E21.60266
G1 X124.073 Y78.17 E21.62716
G1 X124.12 Y77.449 E21.6569
G1 X124.083 Y76.814 E21.68308
G1 X123.976 Y76.234 E21.70735
G1 X123.823 Y75.795 E21.72648
G1 X123.593 Y75.39 E21.74565
G1 X123.412 Y75.184 E21.75693
G1 X123.207 Y75.015 E21.76787
G1 X122.974 Y74.881 E21.77893
G1 X122.715 Y74.784 E21.79031
G1 X122.382 Y74.717 E21.80429
G1 X122.004 Y74.695 E21.81987
G1 X121.286 Y74.734 E21.84947
G1 X120.765 Y74.841 E21.87135
G1 X119.784 Y75.23 E21.91479
G1 X119.436 Y75.182 E21.92924
G1 X118.997 Y74.739 E21.95491
G1 X118.755 Y74.022 E21.98605
G1 X118.096 Y75.83 E22.06525
G1 X117.172 Y78.209 E22.17028
G1 X116.273 Y80.35 E22.26585
G1 X115.307 Y82.464 E22.3615
G1 X115.123 Y82.638 E22.37192
G1 X114.799 Y82.77 E22.38632
G1 X113.009 Y82.77 E22.45999
G1 X112.689 Y82.642 E22.47417
G1 X112.5 Y82.464 E22.48486
G1 X111.522 Y80.327 E22.58158
G1 X110.629 Y78.191 E22.67686
G1 X109.7 Y75.814 E22.78189
G1 X108.899 Y73.628 E22.8777
G1 X108.899 Y82.06 E23.22471
G1 X108.834 Y82.355 E23.23715
G1 X108.595 Y82.642 E23.25252
G1 X108.274 Y82.77 E23.26674
G1 X105.613 Y82.77 E23.37625
G1 X104.259 Y82.678 E23.4321
G1 X103.131 Y82.409 E23.47983
G1 X102.629 Y82.195 E23.50229
G1 X102.117 Y81.897 E23.52667
G1 X101.589 Y81.444 E23.5553
G1 F1792.8 X101.177 Y80.873 E23.58439
G1 F1774.9 X100.91 Y80.232 E23.61337
G1 F1747.1 X100.785 Y79.685 E23.63717
G1 F1771.4 X100.755 Y79.066 E23.66308
G1 F1785.6 X100.798 Y78.362 E23.69234
G1 F1767.9 X101.016 Y77.654 E23.72339
G1 F1785.6 X101.355 Y77.048 E23.75219
G1 F1796.4 X101.832 Y76.533 E23.78114
G1 F1800 X102.21 Y76.268 E23.80014
G1 X101.499 Y75.27 E23.85057
G1 X100.828 Y74.216 E23.90199
G1 F1837.1 X100.246 Y73.097 E23.95285
G1 X100.265 Y74.358 E24.0037
G1 F1800 X100.265 Y77.629 E24.13832
G1 F1757.4 X100.277 Y78.383 E24.17011
G1 F1764.4 X100.263 Y79.066 E24.19879
G1 F1774.9 X100.274 Y79.76 E24.22776
G1 F1767.9 X100.265 Y80.223 E24.24716
G1 F1800 X100.264 Y82.239 E24.33013
G1 X100.026 Y82.626 E24.34883
G1 X99.62 Y82.767 E24.36652
G1 X96.888 Y82.77 E24.47895
G1 X95.682 Y82.697 E24.52867
G1 X94.559 Y82.469 E24.57583
G1 X93.652 Y82.123 E24.61578
G1 X93.082 Y81.796 E24.64283
G1 X92.63 Y81.461 E24.66598
G1 X92.134 Y80.967 E24.69479
G1 X91.706 Y80.377 E24.72479
G1 X91.372 Y79.718 E24.75519
G1 X91.13 Y78.983 E24.78704
G1 X90.987 Y78.147 E24.82194
G1 X90.945 Y77.359 E24.85442
G1 X90.946 Y77.269 E24.85812
G1 X91.023 Y76.207 E24.90195
G1 X91.155 Y75.588 E24.92799
G1 X91.372 Y74.945 E24.95592
G1 X91.706 Y74.287 E24.98629
G1 X92.128 Y73.699 E25.01608
G1 X92.63 Y73.188 E25.04556
G1 X93.208 Y72.76 E25.07516
G1 X93.851 Y72.416 E25.10517
G1 X94.563 Y72.153 E25.1364
G1 X95.693 Y71.916 E25.18392
G1 X96.869 Y71.841 E25.23242
G1 X99.603 Y71.841 E25.34493
G1 X99.84 Y71.899 E25.35498
G1 X100.085 Y72.077 E25.36744
G1 X100.255 Y72.525 E25.38716
G1 X100.591 Y72.183 E25.40689
G1 X100.792 Y72.12 E25.41556
G1 X102.962 Y72.12 E25.50486
G1 X103.23 Y72.249 E25.5171
G1 X103.43 Y72.467 E25.52928
G1 X103.974 Y73.387 E25.57327
G1 X104.559 Y74.274 E25.61699
G1 X105.136 Y75.073 E25.65755
G1 X105.439 Y75.461 E25.67781
G1 X105.754 Y75.461 E25.69078
G1 X105.754 Y72.828 E25.79914
G1 X105.852 Y72.467 E25.81453
G1 X106.121 Y72.206 E25.82996
G1 X106.389 Y72.122 E25.84152
G1 X108.278 Y72.124 E25.91926
G1 X108.617 Y72.262 E25.93432
G1 X108.775 Y72.58 E25.94893
;;retract;;
G1 F2400 E25.38893
G1 X109.282 Y72.119 E25.31084
G1 X110.597 Y72.119 E25.16093
G1 F2400 E25.14893
G0 F4800 X109.068 Y72.828
;TYPE:WALL-OUTER
G1 F2400 E25.94893
G1 F1587 X109.346 Y72.597 E25.96437
G1 F1800 X111.328 Y72.598 E26.03897
G1 X111.447 Y72.763 E26.04663
G1 X112.163 Y74.825 E26.1288
G1 X115.705 Y74.825 E26.26213
G1 X116.428 Y72.716 E26.34605
G1 X116.622 Y72.597 E26.35462
G1 X118.467 Y72.599 E26.42407
G1 F1823.7 X118.666 Y72.754 E26.43344
G1 F1873 X118.54 Y73.181 E26.44955
G1 F1848 X118.046 Y74.569 E26.50357
G1 F1800 X117.649 Y75.657 E26.54716
G1 X116.731 Y78.023 E26.64269
G1 X115.838 Y80.151 E26.72957
G1 X114.905 Y82.192 E26.81404
G1 X114.752 Y82.288 E26.82084
G1 X113.055 Y82.288 E26.88472
G1 X112.902 Y82.192 E26.89152
G1 X111.964 Y80.142 E26.97638
G1 X111.075 Y78.017 E27.06309
G1 X110.149 Y75.65 E27.15877
G1 F1714.6 X109.625 Y74.287 E27.21647
G1 F1563.2 X109.1 Y72.924 E27.27978
G1 F1456.4 X109.068 Y72.828 E27.28449
G0 F4800 X109.222 Y72.701
;;retract;;
G1 F2400 E26.72449
G1 X111.22 Y72.604 E26.49649
G1 F2400 E26.48449
G0 F4800 X108.77 Y72.193
G0 X108.519 Y71.982
G0 X106.133 Y71.982
G0 X105.674 Y72.358
G0 X105.545 Y72.833
G0 X105.518 Y75.183
G0 X104.716 Y74.135
G0 X103.445 Y72.141
G0 X103.027 Y71.98
G0 X100.437 Y71.984
G1 F2400 E27.28449
G0 F4800 X100.675 Y72.735
G1 F1800 X100.812 Y72.597 E27.29181
G1 X102.867 Y72.602 E27.36917
G1 X102.998 Y72.676 E27.37483
G1 X103.568 Y73.641 E27.41702
G1 X104.156 Y74.534 E27.45727
G1 X104.758 Y75.368 E27.49598
G1 X105.206 Y75.94 E27.52333
G1 X106.232 Y75.939 E27.56196
G1 X106.232 Y72.738 E27.68245
G1 X106.391 Y72.597 E27.69045
G1 X108.232 Y72.601 E27.75975
G1 F1686.8 X108.471 Y72.814 E27.77261
G1 X108.42 Y75.956 E27.89884
G1 F1800 X108.42 Y82.131 E28.13128
G1 X108.229 Y82.288 E28.14059
G1 X105.598 Y82.291 E28.23963
G1 X104.367 Y82.21 E28.28606
G1 X103.286 Y81.954 E28.32788
G1 X102.804 Y81.749 E28.3476
G1 X102.394 Y81.507 E28.36552
G1 X101.958 Y81.13 E28.38722
G1 X101.597 Y80.636 E28.41025
G1 X101.362 Y80.062 E28.43359
G1 X101.266 Y79.601 E28.45132
G1 X101.232 Y79.066 E28.4715
G1 X101.284 Y78.446 E28.49492
G1 X101.449 Y77.87 E28.51747
G1 X101.746 Y77.33 E28.54067
G1 X102.131 Y76.914 E28.56201
G1 X102.653 Y76.546 E28.58605
G1 X102.942 Y76.416 E28.59798
G1 X102.564 Y75.943 E28.62077
G1 X101.902 Y75.012 E28.66377
G1 X101.25 Y73.989 E28.70944
G1 X100.684 Y72.938 E28.75437
G1 X100.675 Y72.735 E28.76202
G0 F4800 X100.812 Y72.597
G0 X100.818 Y72.597
;;retract;;
G1 F2400 E28.20202
G1 X102.818 Y72.601 E27.97402
G1 F2400 E27.96202
G0 F4800 X100.818 Y71.918
G0 X100.197 Y71.926
G1 F2400 E28.76202
G0 F4800 X99.728 Y72.395
G1 F1800 X99.786 Y72.549 E28.76822
G1 X99.786 Y82.122 E29.12857
G1 X99.595 Y82.288 E29.1381
G1 X96.874 Y82.291 E29.24052
G1 X95.759 Y82.223 E29.28257
G1 X94.678 Y82.002 E29.32411
G1 X93.872 Y81.695 E29.35657
G1 X93.367 Y81.412 E29.37836
G1 X92.957 Y81.108 E29.39758
G1 X92.487 Y80.639 E29.42257
G1 X92.108 Y80.111 E29.44704
G1 X91.823 Y79.549 E29.47076
G1 X91.602 Y78.885 E29.4971
G1 X91.468 Y78.149 E29.52526
G1 X91.423 Y77.333 E29.55602
G1 X91.502 Y76.257 E29.59664
G1 X91.623 Y75.688 E29.61853
G1 X91.809 Y75.147 E29.64007
G1 X92.127 Y74.52 E29.66653
G1 X92.485 Y74.022 E29.68962
G1 X92.957 Y73.541 E29.71499
G1 X93.452 Y73.174 E29.73818
G1 X94.062 Y72.848 E29.76422
G1 X94.683 Y72.619 E29.78913
G1 X95.772 Y72.39 E29.83102
G1 X96.899 Y72.318 E29.87353
G1 X99.585 Y72.32 E29.97464
G1 X99.728 Y72.395 E29.98072
G0 F4800 X99.786 Y72.549
G0 X99.786 Y72.585
G0 X100.221 Y72.828
;TYPE:WALL-INNER
G1 F719.1 X100.226 Y72.944 E29.98471
;;retract;;
G1 F2400 E29.42471
G1 F2400 E29.18471
G0 F4800 X100.389 Y73.661
G0 X100.401 Y82.39
G0 X99.885 Y82.906
G0 X96.861 Y82.909
G0 X95.687 Y82.841
G0 X94.473 Y82.585
G0 X93.502 Y82.2
G0 X93.105 Y81.987
G0 X92.495 Y81.524
G0 X91.982 Y80.995
G0 X91.619 Y80.512
G0 X91.223 Y79.711
G0 X90.995 Y79.019
G0 X90.847 Y78.127
G0 X90.805 Y77.285
G0 X90.879 Y76.216
G0 X91.046 Y75.462
G0 X91.245 Y74.886
G0 X91.669 Y74.1
G0 X92.012 Y73.618
G0 X92.542 Y73.079
G0 X93.155 Y72.629
G0 X93.867 Y72.261
G0 X94.543 Y72.015
G0 X95.768 Y71.772
G0 X96.886 Y71.7
G0 X99.885 Y71.703
G0 X100.338 Y72.173
G0 X103.027 Y71.98
G0 X103.437 Y72.209
G0 X105.298 Y74.942
G0 X105.518 Y75.183
G0 X105.617 Y72.498
G0 X106.133 Y71.982
G0 X108.519 Y71.982
G0 X108.775 Y72.253
G0 X108.956 Y71.983
G0 X111.477 Y71.98
G0 X111.94 Y72.305
G0 X112.657 Y74.131
G0 X115.209 Y74.131
G0 X115.917 Y72.306
G0 X116.382 Y71.98
G0 X118.846 Y71.983
G0 X119.055 Y72.212
G1 F2400 E29.98471
G0 F4800 X119.107 Y72.904
;TYPE:WALL-OUTER
G1 F1800 X119.584 Y72.699 E30.00425
G1 X120.261 Y72.515 E30.03066
G1 X121.123 Y72.371 E30.06356
G1 X122.142 Y72.318 E30.10197
G1 X123.086 Y72.387 E30.13759
G1 X123.618 Y72.496 E30.15804
G1 X124.104 Y72.653 E30.17726
G1 X124.689 Y72.933 E30.20168
G1 X125.186 Y73.272 E30.22432
G1 X125.602 Y73.656 E30.24563
G1 X126.001 Y74.161 E30.26986
G1 X126.308 Y74.694 E30.29301
G1 X126.548 Y75.277 E30.31675
G1 X126.794 Y76.322 E30.35716
G1 X126.871 Y77.457 E30.39998
G1 X126.797 Y78.481 E30.43863
G1 X126.684 Y79.04 E30.46009
G1 X126.494 Y79.623 E30.48318
G1 X126.126 Y80.374 E30.51466
G1 X125.825 Y80.818 E30.53485
G1 X125.487 Y81.208 E30.55428
G1 X125.003 Y81.637 E30.57862
G1 X124.497 Y81.968 E30.60138
G1 X123.927 Y82.234 E30.62506
G1 X123.163 Y82.459 E30.65504
G1 X122.611 Y82.545 E30.67607
G1 X122.06 Y82.57 E30.69683
G1 X121.016 Y82.496 E30.73623
G1 X120.126 Y82.326 E30.77034
G1 X119.542 Y82.13 E30.79353
G1 X119.105 Y81.942 E30.81143
G1 X119.07 Y81.714 E30.82012
G1 X119.614 Y80.171 E30.8817
G1 X119.834 Y80.092 E30.8905
G1 X120.298 Y80.324 E30.91003
G1 X120.784 Y80.498 E30.92946
G1 X121.384 Y80.63 E30.95259
G1 X122.016 Y80.672 E30.97643
G1 X122.503 Y80.632 E30.99483
G1 X122.789 Y80.567 E31.00587
