;FLAVOR:Marlin
;TIME:4503.17
;Filament used:7.50788m
;Layer Height:0.2
;MINX:87.931
;MINY:68.922
;MINZ:0.2
;MAXX:132.069
;MAXY:151.078
;MAXZ:30
;OuterWall Time:1394.72
;InnerWall Time:934.76
;Skin Time:1391.53
;Support Time:5.09837
;SkirtBrim Time:0.598739
;Infill Time:99.4195
;Support Infills Time:0
;Combing Time:231.801
;Retraction Time:445.251
;PrimeTower Time:0
;;;;;;;;;;;;;;;;;;;;;;;;;;;;;;;;;;;;;;;;;;;;;;;;;;;;;;;;;;;;;;;;;;
;Creality Print GCode Generated by CXEngine
;CRSLICE_GIT_HASH:6b8d75d
;Creality Print Version : V4.3.7.6627
;CXEngine Release Time:2023-09-22 09:18:32
;Gcode Generated Time:2024-08-26 00:03:58
;----------Machine Config--------------
;Machine Name:Ender-3 V3 SE
;Machine Height:250
;Machine Width:220
;Machine Depth:220
;Material Type:PLA
;Material Name:CR-PLA_1.75
;Number of Extruders:1
;ExtruderParams[0] Nozzle Diameter:1000
;----------Profile Config---------------
;Wall Thickness:0.8
;Top/Bottom Thickness:0.8
;Out Wall Line Width:0.42
;Inner Wall Line Width:0.45
;Inital Height:200
;Wall Line Count:2
;Infill Line Distance:8
;Infill Pattern:grid
;Infill Sparse Density:10
;Infill Wipe Distance:0
;Print Temperature:205
;Bed Temperature:60
;Support Enable:false
;Support Density:15
;Support Angle:60
;Adhesion Type:autobrim
;machine is belt:false
;machine belt offset:10
;machine belt offset Y:0
;Raft Base Line Spacing:1.6
;Wait Heatup Sync:true
;Enable Ironing:false
;Material Type:PLA
;Max volumetric speed:20
;Material Diameter:1.75
;Material Density:1.24
;Filament Cost:0.3
;Filament Weight:0
;Preview Img Type:png
;Screen Size:Sermoon D3
;----------Shell Config----------------
;Outer Wall Wipe Distance:200
;Outer Inset First:false
;Infill Before Walls:false
;Infill Overlap:0.04
;Fill Gaps Between Walls:everywhere
;Minimum Infill Area:15
;Top Surface Skin Layer:0
;Top Layers:4
;Z Seam Alignment:sharpest_corner
;Seam Corner Preference:z_seam_corner_inner
;Z Seam X:110
;Z Seam Y:220
;Horizontal Expansion:0
;Top/Bottom Pattern:zigzag
;Ironing Pattern:zigzag
;Vase Model:false
;----------Support Config----------------
;Support Type:everywhere
;Support Pattern:zigzag
;Support Infill Layer Thickness:0.15
;Minimum Support Area:1
;Enable Support Roof:true
;Support Roof Thickness:0.8
;Support Roof Pattern:lines
;Connect Support Lines:0
;Connect Support ZigZags:1
;Minimum Support X/Y Distance:0.2
;Support Line Distance:2.67
; ---------PrintSpeed & Travel----------
;Enable Print Cool:true
;Avoid Printed Parts Traveling:true
;Enable Retraction:true
;Retraction Distance:0.8
;Retraction Speed:40
;Retraction Prime Speed:40
;Maximum Retraction Count:100
;Minimum Extrusion Distance Window:0.8
;Z Hop When Retracted:false
;Z Hop Height:0.2
;Retract Before Outer Wall:true

;Outer Wall Speed:60
;Inner Wall Speed:90
;Infill Speed:180
;Top/Bottom Speed:50
;Travel Speed:150
;Initial Layer Speed:30
;Skirt/Brim Speed:25
;Prime Tower Speed:60
;Outer Wall Acceleration:1000
;Inner Wall Acceleration:2000
;Infill Acceleration:2500
;Top/Bottom Acceleration:2500
;Travel Acceleration:2500
;Initial Layer Print Acceleration:500
;Initial Layer Travel Acceleration:500
;Skirt/Brim Acceleration:500
;Combing Mode:noskin
; --------SpecialModel&Mesh Fixes--------
;Union Overlapping Volum:true
;Remove All Holes:false
;Maximum Travel Resolution:0.25
;Maximum Deviation:0.05
;Maximum Model Angle:0.872767
;IS Mold Print:false
;Make Overhang Printable:false
;Enable Coasting:false
;Coasting Volumes:0.064
;Coasting Speed:0.9
;Raft AirGap:0.25
;Layer0 ZOverLap:0.13
;Adaptive Layers:0
;---------------------End of Head--------------------------
M140 S60
M105
M190 S60
M104 S205
M82 ;absolute extrusion mode
M220 S100 ;Reset Feedrate
M221 S100 ;Reset Flowrate

G28 ;Home

G92 E0 ;Reset Extruder
G1 Z2.0 F3000 ;Move Z Axis up
G1 X10.1 Y20 Z0.28 F5000.0 ;Move to start position
M109 S205.000000
G1 X10.1 Y145.0 Z0.28 F1500.0 E15 ;Draw the first line
G1 X10.4 Y145.0 Z0.28 F5000.0 ;Move to side a little
G1 X10.4 Y20 Z0.28 F1500.0 E30 ;Draw the second line
G92 E0  ;Reset Extruder
G1 E-1.0000 F1800 ;Retract a bit
G1 Z2.0 F3000 ;Move Z Axis up
G1 E0.0000 F1800 

G92 E0
G92 E0
G1 F2400 E-0.8
;LAYER_COUNT:150

;LAYER:0
M106 S0
M204 S500
G0 F4800 X91.242 Y144.685 Z0.2
;TYPE:SKIRT
G1 F2400 E0
G1 F1500 X90.842 Y145.039 E0.02052
G1 X90.539 Y145.479 E0.04104
G1 X90.348 Y145.98 E0.06163
G1 X90.284 Y146.511 E0.08218
G1 X90.347 Y147.034 E0.10241
G1 X90.539 Y147.538 E0.12313
G1 X90.842 Y147.979 E0.14368
G1 X91.057 Y148.17 E0.15473
G1 X93.943 Y148.17 E0.26558
G1 X94.158 Y147.979 E0.27663
G1 X94.461 Y147.538 E0.29718
G1 X94.653 Y147.034 E0.31789
G1 X94.716 Y146.507 E0.33828
G1 X94.652 Y145.98 E0.35867
G1 X94.461 Y145.479 E0.37927
G1 X94.158 Y145.039 E0.39979
G1 X93.758 Y144.685 E0.42031
G1 X93.288 Y144.438 E0.4407
G1 X92.766 Y144.31 E0.46134
G1 X92.234 Y144.31 E0.48178
G1 X91.712 Y144.438 E0.50242
G1 X91.242 Y144.685 E0.52282
;;retract;;
G1 F2400 E-0.03718
G1 X90.539 Y145.479 E-0.15802
G1 X90.348 Y145.98 E-0.21913
G1 X90.3 Y146.381 E-0.26518
G1 F2400 E-0.27718
G0 F4800 X91.242 Y144.685
G0 X91.368 Y146.509
;TYPE:SUPPORT
G1 F2400 E0.52282
G1 F1800 X91.403 Y146.793 E0.53161
G1 X91.542 Y147.095 E0.54183
G1 X93.459 Y147.095 E0.60073
G1 X93.597 Y146.793 E0.61094
G1 X93.632 Y146.509 E0.61973
G1 X93.581 Y146.1 E0.6324
G1 X93.34 Y145.75 E0.64545
G1 X93.134 Y145.57 E0.65386
G1 X92.908 Y145.448 E0.66175
G1 X92.644 Y145.385 E0.67009
G1 X92.357 Y145.385 E0.67891
G1 X92.093 Y145.448 E0.68725
G1 X91.867 Y145.57 E0.69514
G1 X91.66 Y145.751 E0.70359
G1 X91.487 Y146.001 E0.71293
G1 X91.377 Y146.437 E0.72675
G1 X91.368 Y146.509 E0.72898
G0 F4800 X90.902 Y146.509
G1 F1800 X90.95 Y146.899 E0.74106
G1 X91.078 Y147.238 E0.75219
G1 X91.298 Y147.557 E0.7641
G1 X93.702 Y147.557 E0.83797
G1 X93.922 Y147.238 E0.84988
G1 X94.05 Y146.899 E0.86101
G1 X94.098 Y146.509 E0.87309
G1 X94.049 Y146.114 E0.88532
G1 X93.922 Y145.779 E0.89633
G1 X93.69 Y145.443 E0.90888
G1 X93.402 Y145.189 E0.92068
G1 X93.072 Y145.014 E0.93215
G1 X92.697 Y144.923 E0.94401
G1 X92.305 Y144.923 E0.95606
G1 X91.928 Y145.014 E0.96797
G1 X91.599 Y145.189 E0.97943
G1 X91.31 Y145.443 E0.99125
G1 X91.078 Y145.779 E1.0038
G1 X90.951 Y146.114 E1.0148
G1 X90.902 Y146.509 E1.02704
G0 F4800 X90.437 Y146.509
G1 F1800 X90.497 Y147.005 E1.04239
G1 X90.669 Y147.46 E1.05733
G1 X91.054 Y148.019 E1.07819
G1 X93.946 Y148.019 E1.16706
G1 X94.331 Y147.46 E1.18792
G1 X94.503 Y147.005 E1.20286
G1 X94.563 Y146.509 E1.21822
G1 X94.502 Y146.008 E1.23373
G1 X94.331 Y145.557 E1.24855
G1 X94.04 Y145.136 E1.26427
G1 X93.669 Y144.808 E1.27949
G1 X93.236 Y144.58 E1.29453
G1 X92.749 Y144.461 E1.30993
G1 X92.251 Y144.461 E1.32524
G1 X91.764 Y144.58 E1.34064
G1 X91.331 Y144.808 E1.35568
G1 X90.96 Y145.136 E1.3709
G1 X90.669 Y145.557 E1.38662
G1 X90.498 Y146.008 E1.40144
G1 X90.437 Y146.509 E1.41695
G0 F4800 X91.912 Y146.511
G1 F454.4 X91.923 Y146.559 E1.41895
G1 F451.5 X93.093 Y146.554 E1.46673
G1 F447.8 X93.005 Y146.171 E1.48291
G1 X92.652 Y145.924 E1.50065
G1 F451.5 X92.288 Y145.96 E1.51559
G1 F454.4 X91.989 Y146.172 E1.53046
G1 X91.912 Y146.511 E1.54456
;;retract;;
G1 F2400 E0.98456
G1 X93.093 Y146.554 E0.84993
G1 X93.005 Y146.171 E0.80524
G1 X92.655 Y145.926 E0.75656
G1 F2400 E0.74456
;MESH:0_0
G0 F4800 X91.912 Y146.511
G0 X90.566 Y149.345
G0 X91.107 Y150.123
G1 F2400 E1.54456
G0 F4800 X91.177 Y150.005
;TYPE:WALL-INNER
G1 F1800 X90.371 Y149.579 E1.58208
G1 X89.705 Y148.988 E1.61873
G1 X89.19 Y148.24 E1.6561
G1 F1825.8 X88.887 Y147.415 E1.69176
G1 F1980 X88.812 Y146.593 E1.72264
G1 F2121.4 X88.812 Y146.43 E1.72833
G1 F2048.3 X88.887 Y145.598 E1.75854
G1 F1928.6 X89.191 Y144.775 E1.79224
G1 F1840.9 X89.706 Y144.029 E1.82872
G1 F1800 X90.371 Y143.439 E1.86531
G1 X91.166 Y143.018 E1.90233
G1 X92.057 Y142.8 E1.94008
G1 X92.951 Y142.806 E1.97687
G1 X93.829 Y143.016 E2.01403
G1 X94.622 Y143.436 E2.05096
G1 X95.294 Y144.029 E2.08784
G1 X95.802 Y144.765 E2.12465
G1 X96.126 Y145.611 E2.16193
G1 X96.235 Y146.507 E2.19908
G1 X96.127 Y147.403 E2.23622
G1 X95.808 Y148.243 E2.2732
G1 X95.299 Y148.983 E2.31016
G1 X94.627 Y149.58 E2.34715
G1 X93.823 Y150.005 E2.38458
G1 F1916.1 X92.963 Y150.184 E2.41854
G1 F2038.9 X92.041 Y150.184 E2.45204
G1 F1912 X91.177 Y150.005 E2.48622
;;retract;;
G1 F2400 E1.92622
G1 X89.705 Y148.988 E1.72228
G1 X89.586 Y148.815 E1.69822
G1 F2400 E1.68622
G0 F4800 X91.107 Y150.123
G0 X92.055 Y150.357
G0 X92.861 Y150.341
G0 X93.795 Y150.224
G0 X107.142 Y132.674
G0 X107.295 Y132.128
G1 F2400 E2.48622
G0 F4800 X107.434 Y132.164
G1 F1800 X107.614 Y131.685 E2.50728
G1 X107.926 Y131.23 E2.52999
G1 X108.325 Y130.874 E2.55199
G1 X108.801 Y130.619 E2.57422
G1 X109.337 Y130.49 E2.59691
G1 X109.865 Y130.49 E2.61864
G1 X110.394 Y130.619 E2.64104
G1 X110.861 Y130.863 E2.66273
G1 X111.269 Y131.223 E2.68512
G1 X111.574 Y131.661 E2.70709
G1 X111.765 Y132.158 E2.729
G1 X111.834 Y132.705 E2.75169
G1 X111.772 Y133.233 E2.77357
G1 X111.583 Y133.738 E2.79576
G1 X111.276 Y134.186 E2.81811
G1 X110.875 Y134.539 E2.8401
G1 X110.401 Y134.795 E2.86227
G1 X109.854 Y134.929 E2.88544
G1 X109.344 Y134.929 E2.90643
G1 X108.79 Y134.793 E2.92991
G1 X108.329 Y134.546 E2.95143
G1 X107.925 Y134.19 E2.97359
G1 X107.627 Y133.757 E2.99523
G1 X107.431 Y133.246 E3.01775
G1 X107.375 Y132.8 E3.03625
G1 X107.37 Y132.683 E3.04107
G1 X107.434 Y132.164 E3.06259
;;retract;;
G1 F2400 E2.50259
G1 X107.926 Y131.23 E2.38232
G1 X108.325 Y130.874 E2.32144
G1 X108.687 Y130.68 E2.27459
G1 F2400 E2.26259
G0 F4800 X107.898 Y132.299
;TYPE:WALL-OUTER
G1 F2400 E3.06259
G1 F1800 X108.043 Y131.907 E3.07832
G1 X108.296 Y131.54 E3.0951
G1 X108.591 Y131.276 E3.11
G1 X108.988 Y131.066 E3.12691
G1 X109.377 Y130.972 E3.14197
G1 X109.799 Y130.969 E3.15786
G1 X110.217 Y131.069 E3.17404
G1 X110.602 Y131.271 E3.19041
G1 X110.911 Y131.545 E3.20595
G1 X111.147 Y131.887 E3.22159
G1 X111.297 Y132.276 E3.23729
G1 X111.352 Y132.697 E3.25327
G1 X111.303 Y133.118 E3.26922
G1 X111.154 Y133.518 E3.28529
G1 X110.918 Y133.862 E3.30099
G1 X110.601 Y134.147 E3.31704
G1 X110.239 Y134.341 E3.3325
G1 X109.815 Y134.447 E3.34895
G1 X109.404 Y134.449 E3.36442
G1 X108.961 Y134.341 E3.38159
G1 X108.593 Y134.142 E3.39734
G1 X108.279 Y133.86 E3.41322
G1 X108.054 Y133.532 E3.4282
G1 X107.901 Y133.134 E3.44425
G1 X107.85 Y132.74 E3.4592
G1 X107.848 Y132.702 E3.46063
G1 X107.898 Y132.299 E3.47592
G0 F4800 X107.967 Y132.111
;;retract;;
G1 F2400 E2.91592
G1 X108.296 Y131.54 E2.84079
G1 X108.591 Y131.276 E2.79576
G1 X108.988 Y131.066 E2.74458
G1 X109.377 Y130.972 E2.69898
G1 X109.474 Y130.972 E2.68792
G1 F2400 E2.67592
G0 F4800 X107.379 Y131.89
G0 X107.23 Y132.655
G0 X107.313 Y133.334
G0 X107.541 Y133.878
G0 X107.835 Y134.298
G0 X108.283 Y134.682
G0 X108.876 Y134.96
G0 X109.336 Y135.068
G0 X109.971 Y135.048
G0 X110.34 Y134.959
G0 X111.362 Y134.417
G0 X123.672 Y145.447
G0 X123.629 Y146.401
G1 F2400 E3.47592
G0 F4800 X123.775 Y146.426
;TYPE:WALL-INNER
G1 F1800 X123.871 Y145.634 E3.50875
G1 X124.19 Y144.782 E3.54619
G1 X124.704 Y144.033 E3.58358
G1 X125.364 Y143.445 E3.61996
G1 X126.158 Y143.022 E3.65698
G1 X127.05 Y142.806 E3.69475
G1 X127.945 Y142.8 E3.73159
G1 X128.833 Y143.018 E3.76922
G1 X129.627 Y143.438 E3.80618
G1 X130.295 Y144.03 E3.84292
G1 X130.812 Y144.779 E3.88037
G1 F1887.7 X131.113 Y145.6 E3.91469
G1 F2057.7 X131.192 Y146.507 E3.94746
G1 F1984.4 X131.114 Y147.414 E3.98145
G1 F1825.8 X130.81 Y148.24 E4.01716
G1 F1800 X130.299 Y148.983 E4.05427
G1 X129.627 Y149.58 E4.09126
G1 X128.823 Y150.005 E4.12869
G1 F1916.1 X127.963 Y150.184 E4.16265
G1 F2038.9 X127.041 Y150.184 E4.19615
G1 F1912 X126.177 Y150.005 E4.23033
G1 F1800 X125.371 Y149.579 E4.26785
G1 X124.705 Y148.988 E4.3045
G1 X124.192 Y148.243 E4.34172
G1 X123.873 Y147.403 E4.3787
G1 X123.775 Y146.597 E4.41212
G1 X123.775 Y146.426 E4.41915
;;retract;;
G1 F2400 E3.85915
G1 X124.19 Y144.782 E3.66592
G1 X124.362 Y144.531 E3.63115
G1 F2400 E3.61915
G0 F4800 X124.25 Y146.483
;TYPE:WALL-OUTER
G1 F2400 E4.41915
G1 F1800 X124.343 Y145.729 E4.44775
G1 X124.613 Y145.014 E4.47652
G1 X125.065 Y144.353 E4.50666
G1 X125.639 Y143.842 E4.53559
G1 X126.331 Y143.473 E4.56511
G1 X127.112 Y143.281 E4.59539
G1 X127.886 Y143.279 E4.62452
G1 X128.662 Y143.469 E4.6546
G1 X129.354 Y143.835 E4.68406
G1 X129.935 Y144.349 E4.71327
G1 X130.382 Y144.998 E4.74293
G1 X130.659 Y145.729 E4.77236
G1 X130.752 Y146.507 E4.80185
G1 X130.661 Y147.272 E4.83085
G1 X130.383 Y148.016 E4.86075
G1 X129.933 Y148.669 E4.8906
G1 X129.357 Y149.181 E4.91961
G1 X128.659 Y149.551 E4.94935
G1 X127.899 Y149.736 E4.97879
G1 X127.114 Y149.739 E5.00834
G1 X126.338 Y149.549 E5.03841
G1 X125.646 Y149.183 E5.06788
G1 X125.064 Y148.667 E5.09716
G1 X124.618 Y148.019 E5.12677
G1 X124.342 Y147.289 E5.15615
G1 X124.25 Y146.539 E5.18459
G1 X124.25 Y146.483 E5.1867
G0 F4800 X124.274 Y146.285
;;retract;;
G1 F2400 E4.6267
G1 X124.613 Y145.014 E4.47679
G1 X125 Y144.449 E4.3987
G1 F2400 E4.3867
G0 F4800 X123.652 Y146.21
G0 X123.916 Y144.803
G0 X105.431 Y101.05
G0 X102.04 Y100.958
G0 X101.524 Y100.442
G0 X101.524 Y98.14
G0 X101.961 Y97.724
G1 F2400 E5.1867
G0 F4800 X102.085 Y97.82
;TYPE:WALL-INNER
G1 F1800 X102.37 Y97.761 E5.19868
G1 X103.161 Y97.761 E5.23123
G1 X103.164 Y82.297 E5.86765
G1 X103.329 Y82.011 E5.88124
G1 X103.669 Y81.765 E5.89851
G1 X116.976 Y81.761 E6.44615
G1 X117.267 Y81.856 E6.45875
G1 X117.518 Y82.101 E6.47318
G1 X117.62 Y82.426 E6.4872
G1 X117.618 Y98.587 E7.1523
G1 X117.53 Y98.861 E7.16415
G1 X117.314 Y99.097 E7.17731
G1 X116.95 Y99.221 E7.19314
G1 X106.122 Y99.222 E7.63876
G1 X106.122 Y100.112 E7.67539
G1 X106.069 Y100.381 E7.68667
G1 X105.843 Y100.676 E7.70197
G1 X105.485 Y100.821 E7.71786
G1 X102.287 Y100.817 E7.84947
G1 X101.895 Y100.639 E7.86719
G1 X101.665 Y100.33 E7.88304
G1 X101.661 Y98.47 E7.95959
G1 X101.676 Y98.32 E7.9658
G1 X101.792 Y98.058 E7.97759
G1 X102.085 Y97.82 E7.99312
;;retract;;
G1 F2400 E7.43312
G1 X103.161 Y97.761 E7.31035
G1 X103.161 Y96.838 E7.20512
G1 F2400 E7.19312
G0 F4800 X102.251 Y98.239
;TYPE:WALL-OUTER
G1 F2400 E7.99312
G1 F1800 X103.639 Y98.239 E8.04537
G1 X103.64 Y82.447 E8.63983
G1 X103.83 Y82.242 E8.65035
G1 X116.942 Y82.241 E9.14392
G1 X117.143 Y82.363 E9.15277
G1 X117.142 Y98.536 E9.76157
G1 X117.088 Y98.662 E9.76673
G1 X116.938 Y98.742 E9.77313
G1 X105.643 Y98.743 E10.1983
G1 X105.643 Y100.177 E10.25228
G1 X105.457 Y100.343 E10.26166
G1 X102.343 Y100.342 E10.37888
G1 X102.142 Y100.226 E10.38762
G1 X102.139 Y98.47 E10.45372
G1 X102.251 Y98.239 E10.46338
G0 F4800 X102.451 Y98.239
;;retract;;
G1 F2400 E9.90338
G1 X102.601 Y96.245 E9.67538
G1 F2400 E9.66338
G0 F4800 X102.451 Y97.613
G0 X102.941 Y97.541
G0 X102.932 Y82.47
G0 X93.933 Y77.203
G0 X91.097 Y77.101
G1 F2400 E10.46338
G0 F4800 X91.167 Y76.982
;TYPE:WALL-INNER
G1 F1800 X90.373 Y76.562 E10.50035
G1 X89.703 Y75.969 E10.53717
G1 X89.191 Y75.224 E10.57438
G1 F1887.7 X88.887 Y74.401 E10.60881
G1 F2048.3 X88.812 Y73.575 E10.6388
G1 F2121.4 X88.812 Y73.412 E10.64449
G1 F2048.3 X88.887 Y72.58 E10.67471
G1 F1928.6 X89.19 Y71.759 E10.70832
G1 F1840.9 X89.704 Y71.015 E10.74471
G1 F1800 X90.373 Y70.42 E10.78155
G1 X91.177 Y69.995 E10.81898
G1 F1932.8 X92.029 Y69.821 E10.85231
G1 F2081.8 X92.956 Y69.821 E10.8853
G1 F1928.6 X93.822 Y69.994 E10.91922
G1 F1800 X94.629 Y70.421 E10.95679
G1 X95.294 Y71.011 E10.99338
G1 X95.807 Y71.755 E11.03057
G1 X96.127 Y72.596 E11.0676
G1 X96.236 Y73.49 E11.10467
G1 X96.121 Y74.403 E11.14254
G1 X95.806 Y75.219 E11.17854
G1 X95.307 Y75.954 E11.2151
G1 X94.629 Y76.561 E11.25255
G1 X93.818 Y76.985 E11.29021
G1 X92.925 Y77.2 E11.32801
G1 X92.057 Y77.2 E11.36374
G1 X91.167 Y76.982 E11.40145
G0 F4800 X91.075 Y77.157
G0 X90.245 Y76.634
G0 X89.547 Y75.989
G0 X89.057 Y75.265
G0 X88.729 Y74.367
G0 X88.649 Y73.614
G0 X88.601 Y69.61
G0 X88.431 Y69.44
G1 F1800 X91.188 Y69.44 E11.51491
G1 F1937 X91.988 Y69.405 E11.54553
G1 F2111.4 X92.86 Y69.402 E11.57613
G1 F1949.7 X93.813 Y69.44 E11.61237
G1 F1800 X126.185 Y69.44 E12.94462
G1 F1916.1 X126.986 Y69.409 E12.97561
G1 F2067.3 X127.86 Y69.406 E13.00693
G1 F1932.8 X128.815 Y69.44 E13.04356
G1 F1800 X131.57 Y69.44 E13.15694
G1 F1825.8 X131.576 Y72.448 E13.27898
